X: 1659
T: Annie's New Heart
R: jig
M: 6/8
K: Amajor
|:cAA A2B|cea f2a|f2f fef|afe c2e|
cAA A2B|cea f2a|cea fae|aaa fae:|
|:ccc c2B|cea f2a|fea f2a|e2a fef|
ccc c2B|cea f2a|cea fae|aaa fae:|
|:AAA A2B|cec c2B|cfc ecc|efA AAA|AAA A2B|
cec c2B|1 cee eff|fec ecB:|2 cee eff|faa aaa||
|:aaa aaa|afe fae|fff afe|fec eee|
fec ecB|ccc cea|cea fae|aaa fae:|

